build/fonts/cisco/ibmmainframe.svg

<?xml version="1.0" encoding="UTF-8" standalone="no"?>
<svg
   xmlns:dc="http://purl.org/dc/elements/1.1/"
   xmlns:cc="http://creativecommons.org/ns#"
   xmlns:rdf="http://www.w3.org/1999/02/22-rdf-syntax-ns#"
   xmlns:svg="http://www.w3.org/2000/svg"
   xmlns="http://www.w3.org/2000/svg"
   viewBox="0 0 30 43.75"
   height="43.75"
   width="30"
   xml:space="preserve"
   version="1.1"
   id="svg2"><metadata
     id="metadata8"><rdf:RDF><cc:Work
         rdf:about=""><dc:format>image/svg+xml</dc:format><dc:type
           rdf:resource="http://purl.org/dc/dcmitype/StillImage" /></cc:Work></rdf:RDF></metadata><defs
     id="defs6"><clipPath
       id="clipPath18"
       clipPathUnits="userSpaceOnUse"><path
         id="path20"
         d="M 0,9 0,348 240,348 240,9 0,9 Z" /></clipPath></defs><g
     transform="matrix(1.25,0,0,-1.25,0,43.75)"
     id="g10"><g
       transform="scale(0.1,0.1)"
       id="g12"><g
         id="g14"><g
           clip-path="url(#clipPath18)"
           id="g16"><path
             id="path22"
             style="fill:#02709f;fill-opacity:1;fill-rule:nonzero;stroke:none"
             d="m 184.34,289.52 -89.2189,0 0.4687,-266.9887 88.7502,0 0,266.9887" /><path
             id="path24"
             style="fill:none;stroke:#ffffff;stroke-width:3.99993992;stroke-linecap:butt;stroke-linejoin:miter;stroke-miterlimit:4;stroke-dasharray:none;stroke-opacity:1"
             d="m 184.34,289.52 -89.2189,0 0.4687,-266.9887 88.7502,0 0,266.9887 z" /><path
             id="path26"
             style="fill:#02709f;fill-opacity:1;fill-rule:nonzero;stroke:none"
             d="m 107.77,192.219 62.9688,0 0,60.4297 -62.9688,0 0,-60.4297 z" /><path
             id="path28"
             style="fill:none;stroke:#ffffff;stroke-width:3.99993992;stroke-linecap:butt;stroke-linejoin:miter;stroke-miterlimit:4;stroke-dasharray:none;stroke-opacity:1"
             d="m 107.77,192.219 62.9688,0 0,60.4297 -62.9688,0 0,-60.4297 z" /><path
             id="path30"
             style="fill:#02709f;fill-opacity:1;fill-rule:nonzero;stroke:none"
             d="m 237.27,343.309 -52.821,-54.879 0,-265.9417 52.781,62.543 0.04,258.2777" /><path
             id="path32"
             style="fill:none;stroke:#ffffff;stroke-width:3.99993992;stroke-linecap:butt;stroke-linejoin:miter;stroke-miterlimit:4;stroke-dasharray:none;stroke-opacity:1"
             d="m 237.27,343.309 -52.821,-54.879 0,-265.9417 52.781,62.543 0.04,258.2777 z" /><path
             id="path34"
             style="fill:none;stroke:#ffffff;stroke-width:3.99993992;stroke-linecap:butt;stroke-linejoin:miter;stroke-miterlimit:4;stroke-dasharray:none;stroke-opacity:1"
             d="m 17.6211,291.09 73.0781,0" /><path
             id="path36"
             style="fill:#02709f;fill-opacity:1;fill-rule:nonzero;stroke:none"
             d="m 105.59,299.91 33.551,36.762" /><path
             id="path38"
             style="fill:none;stroke:#ffffff;stroke-width:3.99993992;stroke-linecap:butt;stroke-linejoin:miter;stroke-miterlimit:4;stroke-dasharray:none;stroke-opacity:1"
             d="m 105.59,299.91 33.551,36.762" /><path
             id="path40"
             style="fill:#02709f;fill-opacity:1;fill-rule:nonzero;stroke:none"
             d="m 92.2305,285.539 c 0,0 -0.4297,-17.699 -32.5821,-17.309 l -56.94918,8.719 0,3.391 80.07028,63.871 154.0705,-0.16 -51.918,-54.492 -89.2618,0" /><path
             id="path42"
             style="fill:none;stroke:#ffffff;stroke-width:3.99993992;stroke-linecap:butt;stroke-linejoin:miter;stroke-miterlimit:4;stroke-dasharray:none;stroke-opacity:1"
             d="m 92.2305,285.539 c 0,0 -0.4297,-17.699 -32.5821,-17.309 l -56.94918,8.719 0,3.391 80.07028,63.871 154.0705,-0.16 -51.918,-54.492 -89.2618,0" /><path
             id="path44"
             style="fill:#02709f;fill-opacity:1;fill-rule:nonzero;stroke:none"
             d="m 94.9609,288.59 c 0,0 -25.8593,-15.199 -55.5507,-11.762 l -37.42192,3.16 0,-266.3982 37.42192,-1.6093 C 77.3398,8.69922 95.1211,22.3398 95.1211,22.3398 L 94.9609,288.59" /><path
             id="path46"
             style="fill:none;stroke:#ffffff;stroke-width:3.99993992;stroke-linecap:butt;stroke-linejoin:miter;stroke-miterlimit:4;stroke-dasharray:none;stroke-opacity:1"
             d="m 94.9609,288.59 c 0,0 -25.8593,-15.199 -55.5507,-11.762 l -37.42192,3.16 0,-266.3982 37.42192,-1.6093 C 77.3398,8.69922 95.1211,22.3398 95.1211,22.3398 L 94.9609,288.59 Z" /><path
             id="path48"
             style="fill:none;stroke:#ffffff;stroke-width:3.99993992;stroke-linecap:butt;stroke-linejoin:miter;stroke-miterlimit:4;stroke-dasharray:none;stroke-opacity:1"
             d="m 18.3203,292.301 73.0899,0" /><path
             id="path50"
             style="fill:#02709f;fill-opacity:1;fill-rule:nonzero;stroke:none"
             d="m 112.891,301.121 40.078,36.957" /><path
             id="path52"
             style="fill:none;stroke:#ffffff;stroke-width:3.99993992;stroke-linecap:butt;stroke-linejoin:miter;stroke-miterlimit:4;stroke-dasharray:none;stroke-opacity:1"
             d="m 112.891,301.121 40.078,36.957" /></g></g></g></g></svg>

<svg xmlns="http://www.w3.org/2000/svg" viewBox="0 0 30 43.75" height="43.75" width="30"><defs><clipPath id="a"><path d="M0 9v339h240V9H0z"/></clipPath></defs><g clip-path="url(#a)" transform="matrix(.13 0 0 -.13 0 43.75)"><path d="M184.34 289.52H95.121l.469-266.989h88.75V289.52" fill="#02709f"/><path d="M184.34 289.52H95.121l.469-266.989h88.75V289.52z" fill="none" stroke="#fff" stroke-width="4"/><path d="M107.77 192.219h62.969v60.43H107.77v-60.43z" fill="#02709f"/><path d="M107.77 192.219h62.969v60.43H107.77v-60.43z" fill="none" stroke="#fff" stroke-width="4"/><path d="M237.27 343.309l-52.821-54.879V22.488l52.781 62.543.04 258.278" fill="#02709f"/><path d="M237.27 343.309l-52.821-54.879V22.488l52.781 62.543.04 258.278zM17.621 291.09H90.7" fill="none" stroke="#fff" stroke-width="4"/><path d="M105.59 299.91l33.551 36.762" fill="#02709f"/><path d="M105.59 299.91l33.551 36.762" fill="none" stroke="#fff" stroke-width="4"/><path d="M92.23 285.539s-.43-17.699-32.582-17.309L2.7 276.949v3.391l80.07 63.871 154.071-.16-51.918-54.492H95.66" fill="#02709f"/><path d="M92.23 285.539s-.43-17.699-32.582-17.309L2.7 276.949v3.391l80.07 63.871 154.071-.16-51.918-54.492H95.66" fill="none" stroke="#fff" stroke-width="4"/><path d="M94.96 288.59s-25.858-15.199-55.55-11.762l-37.422 3.16V13.59l37.422-1.61C77.34 8.7 95.121 22.34 95.121 22.34l-.16 266.25" fill="#02709f"/><path d="M94.96 288.59s-25.858-15.199-55.55-11.762l-37.422 3.16V13.59l37.422-1.61C77.34 8.7 95.121 22.34 95.121 22.34l-.16 266.25zM18.32 292.301h73.09" fill="none" stroke="#fff" stroke-width="4"/><path d="M112.891 301.121l40.078 36.957" fill="#02709f"/><path d="M112.891 301.121l40.078 36.957" fill="none" stroke="#fff" stroke-width="4"/></g></svg>
